; generated by PrusaSlicer 2.2.0+ on 2021-08-20 at 02:22:01 UTC


;
;

;
;
; 

; external perimeters extrusion width = 0.45mm
; perimeters extrusion width = 0.45mm
; infill extrusion width = 0.45mm
; solid infill extrusion width = 0.45mm
; top infill extrusion width = 0.40mm
; first layer extrusion width = 0.42mm

M73 P0 R8
M201 X1250 Y1250 Z400 E5000 ; sets maximum accelerations, mm/sec^2
M203 X180 Y180 Z12 E80 ; sets maximum feedrates, mm/sec
M204 P1250 R1250 T1250 ; sets acceleration (P, T) and retract acceleration (R), mm/sec^2
M205 X8.00 Y8.00 Z2.00 E10.00 ; sets the jerk limits, mm/sec
M205 S0 T0 ; sets the minimum extruding and travel feed rate, mm/sec
M107
G90 ; use absolute coordinates
M83 ; extruder relative mode
M104 S170 ; set extruder temp for bed leveling
M140 S60 ; set bed temp
M109 R170 ; wait for bed leveling temp
M190 S60 ; wait for bed temp
G28 ; home all without mesh bed level
G29 ; mesh bed leveling 
M104 S215 ; set extruder temp
G92 E0.0
G1 Y-2.0 X179 F2400
G1 Z3 F720
M109 S215 ; wait for extruder temp

; intro line
G1 X170 F1000
G1 Z0.2 F720
G1 X110.0 E8.0 F900
M73 P2 R8
G1 X40.0 E10.0 F700
G92 E0.0

M221 S95 ; set flow
G21 ; set units to millimeters
G90 ; use absolute coordinates
M83 ; use relative distances for extrusion
M900 K0.2 ; Filament gcode LA 1.5
; ; Filament gcode LA 1.0
;BEFORE_LAYER_CHANGE
G92 E0.0
;0.2


G1 Z0.200 F9000.000
;AFTER_LAYER_CHANGE
;0.2
G1 E-3.20000 F4200.00000
G1 Z0.400 F9000.000
G1 X87.451 Y82.475
G1 Z0.200
G1 E3.20000 F2400.00000
M204 S800
G1 F1185
G1 X88.072 Y82.047 E0.02366
G1 X88.778 Y81.779 E0.02366
G1 X89.531 Y81.688 E0.02379
G1 X90.259 Y81.775 E0.02298
G1 X90.950 Y82.030 E0.02311
G1 X96.539 Y85.268 E0.20251
G1 X97.053 Y85.727 E0.02161
G1 X97.454 Y86.288 E0.02161
G1 X97.723 Y86.923 E0.02161
G1 X97.847 Y87.601 E0.02161
G1 X97.790 Y88.449 E0.02665
G1 X97.510 Y89.246 E0.02651
G1 X93.076 Y96.921 E0.27789
G1 X92.613 Y97.466 E0.02243
G1 X92.043 Y97.890 E0.02229
G1 X91.391 Y98.174 E0.02229
G1 X90.692 Y98.304 E0.02229
G1 X89.869 Y98.253 E0.02583
G1 X89.089 Y97.989 E0.02583
G1 X83.497 Y94.757 E0.20252
G1 X82.968 Y94.295 E0.02202
G1 X82.557 Y93.731 E0.02189
G1 X82.279 Y93.086 E0.02202
G1 X82.153 Y92.399 E0.02189
G1 X82.210 Y91.551 E0.02665
G1 X82.490 Y90.754 E0.02651
G1 X86.948 Y83.043 E0.27926
G1 X87.411 Y82.520 E0.02191
M204 S1250
G1 X87.690 Y82.767 F9000.000
M204 S800
G1 F1185
G1 X88.241 Y82.384 E0.02103
G1 X88.867 Y82.145 E0.02103
G1 X89.529 Y82.065 E0.02090
G1 X90.179 Y82.144 E0.02052
G1 X90.792 Y82.373 E0.02052
G1 X96.301 Y85.562 E0.19958
G1 X96.761 Y85.967 E0.01924
G1 X97.119 Y86.461 E0.01912
G1 X97.359 Y87.021 E0.01912
G1 X97.470 Y87.621 E0.01912
G1 X97.421 Y88.371 E0.02358
G1 X97.170 Y89.084 E0.02371
G1 X92.772 Y96.697 E0.27566
G1 X92.367 Y97.180 E0.01975
G1 X91.863 Y97.558 E0.01975
G1 X91.287 Y97.812 E0.01975
G1 X90.672 Y97.928 E0.01963
G1 X89.937 Y97.882 E0.02307
G1 X89.241 Y97.644 E0.02307
G1 X83.726 Y94.457 E0.19971
G1 X83.255 Y94.051 E0.01950
G1 X82.889 Y93.553 E0.01937
G1 X82.643 Y92.986 E0.01937
G1 X82.530 Y92.379 E0.01937
G1 X82.579 Y91.625 E0.02371
G1 X82.832 Y90.912 E0.02371
G1 X87.248 Y83.272 E0.27668
G1 X87.651 Y82.812 E0.01915
M204 S1250
G1 X87.933 Y83.056 F9000.000
M204 S800
G1 F1185
G1 X88.409 Y82.722 E0.01826
G1 X88.955 Y82.512 E0.01835
G1 X89.533 Y82.442 E0.01823
G1 X90.098 Y82.512 E0.01787
G1 X90.628 Y82.713 E0.01775
G1 X96.069 Y85.860 E0.19711
G1 X96.471 Y86.209 E0.01668
G1 X96.786 Y86.638 E0.01668
G1 X96.997 Y87.127 E0.01668
G1 X97.094 Y87.646 E0.01657
G1 X97.051 Y88.302 E0.02060
G1 X96.828 Y88.924 E0.02071
G1 X92.466 Y96.476 E0.27347
G1 X92.120 Y96.895 E0.01704
G1 X91.684 Y97.226 E0.01716
G1 X91.188 Y97.448 E0.01704
G1 X90.650 Y97.551 E0.01716
G1 X90.010 Y97.512 E0.02012
G1 X89.399 Y97.301 E0.02024
G1 X83.953 Y94.155 E0.19723
G1 X83.541 Y93.805 E0.01692
G1 X83.222 Y93.375 E0.01680
G1 X83.005 Y92.881 E0.01692
G1 X82.906 Y92.354 E0.01680
G1 X82.949 Y91.698 E0.02060
G1 X83.172 Y91.076 E0.02071
G1 X87.551 Y83.498 E0.27442
G1 X87.893 Y83.102 E0.01643
M204 S1250
; printing object 05.stl id:0 copy 0
G1 E-2.24000 F4200.00000
G1 F7200.000
G1 X88.409 Y82.722 E-0.35501
G1 X88.955 Y82.512 E-0.32424
G1 X89.372 Y82.462 E-0.23274
G1 E-0.04800 F4200.00000
G1 Z0.400 F9000.000
G1 X89.815 Y85.895
G1 Z0.200
G1 E3.20000 F2400.00000
M204 S800
G1 F1185
G1 X93.648 Y88.107 E0.13877
G1 X90.185 Y94.105 E0.21715
G1 X86.352 Y91.893 E0.13877
G1 X89.785 Y85.947 E0.21527
M204 S1250
G1 X89.677 Y85.379 F9000.000
M204 S800
G1 F1185
G1 X94.163 Y87.969 E0.16242
G1 X90.323 Y94.621 E0.24080
G1 X85.837 Y92.031 E0.16242
G1 X89.647 Y85.431 E0.23892
M204 S1250
G1 X89.941 Y85.680 F9000.000
G1 E-2.24000 F4200.00000
G1 F7200.000
G1 X91.082 Y86.238 E-0.91200
G1 E-0.04800 F4200.00000
G1 Z0.400 F9000.000
G1 X88.338 Y92.908
G1 Z0.200
G1 E3.20000 F2400.00000
M204 S800
G1 F1185
G1 X86.914 Y91.485 E0.06365
G1 X87.111 Y91.144 E0.01245
G1 X89.146 Y93.179 E0.09100
G1 X90.081 Y93.719 E0.03414
G1 X90.134 Y93.629 E0.00330
G1 X87.308 Y90.803 E0.12635
G1 X87.505 Y90.462 E0.01245
G1 X90.330 Y93.288 E0.12635
G1 X90.527 Y92.947 E0.01244
G1 X87.701 Y90.121 E0.12635
G1 X87.898 Y89.780 E0.01244
G1 X90.724 Y92.606 E0.12635
G1 X90.921 Y92.265 E0.01244
G1 X88.095 Y89.439 E0.12635
G1 X88.292 Y89.098 E0.01245
G1 X91.118 Y91.924 E0.12635
G1 X91.315 Y91.583 E0.01244
G1 X88.489 Y88.758 E0.12635
G1 X88.685 Y88.417 E0.01244
G1 X91.511 Y91.243 E0.12635
G1 X91.708 Y90.902 E0.01244
G1 X88.882 Y88.076 E0.12635
G1 X89.079 Y87.735 E0.01244
G1 X91.905 Y90.561 E0.12635
G1 X92.102 Y90.220 E0.01244
G1 X89.276 Y87.394 E0.12635
G1 X89.473 Y87.053 E0.01244
G1 X92.299 Y89.879 E0.12635
G1 X92.495 Y89.538 E0.01244
G1 X89.670 Y86.712 E0.12635
G1 X89.866 Y86.371 E0.01244
G1 X92.692 Y89.197 E0.12635
G1 X92.889 Y88.856 E0.01244
G1 X90.853 Y86.821 E0.09101
G1 X92.126 Y87.555 E0.04645
G1 X93.210 Y88.640 E0.04848
M204 S1250
; stop printing object 05.stl id:0 copy 0
M106 S255
;BEFORE_LAYER_CHANGE
G92 E0.0
;0.35


G1 Z0.350 F9000.000
;AFTER_LAYER_CHANGE
;0.35
M104 S210 ; set temperature
G1 E-3.20000 F4200.00000
G1 Z0.550 F9000.000
G1 X97.790 Y88.449
G1 Z0.350
G1 E3.20000 F2400.00000
G1 F1119
G1 X97.510 Y89.246 E0.02045
G1 X93.076 Y96.921 E0.21435
G1 X92.613 Y97.466 E0.01730
G1 X92.043 Y97.890 E0.01720
G1 X91.391 Y98.174 E0.01720
G1 X90.692 Y98.304 E0.01720
G1 X89.869 Y98.253 E0.01992
G1 X89.089 Y97.989 E0.01992
G1 X83.497 Y94.757 E0.15621
G1 X82.968 Y94.295 E0.01699
G1 X82.557 Y93.731 E0.01688
G1 X82.279 Y93.086 E0.01699
G1 X82.153 Y92.399 E0.01688
G1 X82.210 Y91.551 E0.02055
G1 X82.490 Y90.754 E0.02045
G1 X86.948 Y83.043 E0.21541
G1 X87.451 Y82.475 E0.01835
G1 X88.072 Y82.047 E0.01825
G1 X88.778 Y81.779 E0.01825
G1 X89.531 Y81.688 E0.01835
G1 X90.259 Y81.775 E0.01772
G1 X90.950 Y82.030 E0.01783
G1 X96.539 Y85.268 E0.15621
G1 X97.053 Y85.727 E0.01667
G1 X97.454 Y86.288 E0.01667
G1 X97.723 Y86.923 E0.01667
G1 X97.847 Y87.601 E0.01667
G1 X97.794 Y88.389 E0.01910
G1 X97.422 Y88.365 F9000.000
G1 F1119
G1 X97.170 Y89.084 E0.01844
G1 X92.772 Y96.697 E0.21263
G1 X92.367 Y97.180 E0.01524
G1 X91.863 Y97.558 E0.01524
G1 X91.287 Y97.812 E0.01524
G1 X90.672 Y97.928 E0.01514
G1 X89.937 Y97.882 E0.01780
G1 X89.241 Y97.644 E0.01780
G1 X83.726 Y94.457 E0.15404
G1 X83.255 Y94.051 E0.01504
G1 X82.889 Y93.553 E0.01494
G1 X82.643 Y92.986 E0.01494
G1 X82.530 Y92.379 E0.01494
G1 X82.579 Y91.625 E0.01829
G1 X82.832 Y90.912 E0.01829
G1 X87.248 Y83.272 E0.21342
G1 X87.690 Y82.767 E0.01622
G1 X88.241 Y82.384 E0.01622
G1 X88.867 Y82.145 E0.01622
G1 X89.529 Y82.065 E0.01612
G1 X90.179 Y82.144 E0.01583
G1 X90.792 Y82.373 E0.01583
G1 X96.301 Y85.562 E0.15394
G1 X96.761 Y85.967 E0.01484
G1 X97.119 Y86.461 E0.01474
G1 X97.359 Y87.021 E0.01474
G1 X97.470 Y87.621 E0.01474
G1 X97.426 Y88.305 E0.01657
G1 X97.052 Y88.280 F9000.000
G1 F1119
G1 X96.828 Y88.924 E0.01648
G1 X92.466 Y96.476 E0.21094
G1 X92.120 Y96.895 E0.01314
G1 X91.684 Y97.226 E0.01324
G1 X91.188 Y97.448 E0.01314
G1 X90.650 Y97.551 E0.01324
G1 X90.010 Y97.512 E0.01552
G1 X89.399 Y97.301 E0.01561
G1 X83.953 Y94.155 E0.15213
G1 X83.541 Y93.805 E0.01305
G1 X83.222 Y93.375 E0.01296
G1 X83.005 Y92.881 E0.01305
G1 X82.906 Y92.354 E0.01296
G1 X82.949 Y91.698 E0.01589
G1 X83.172 Y91.076 E0.01598
G1 X87.551 Y83.498 E0.21167
G1 X87.933 Y83.056 E0.01415
G1 X88.409 Y82.722 E0.01406
G1 X88.955 Y82.512 E0.01415
G1 X89.533 Y82.442 E0.01406
G1 X90.098 Y82.512 E0.01378
G1 X90.628 Y82.713 E0.01369
G1 X96.069 Y85.860 E0.15204
G1 X96.471 Y86.209 E0.01287
G1 X96.786 Y86.638 E0.01287
G1 X96.997 Y87.127 E0.01287
G1 X97.094 Y87.646 E0.01278
G1 X97.056 Y88.220 E0.01392
; printing object 05.stl id:0 copy 0
G1 E-2.24000 F4200.00000
G1 F7200.000
G1 X96.828 Y88.924 E-0.40967
G1 X96.375 Y89.709 E-0.50233
G1 E-0.04800 F4200.00000
G1 Z0.550 F9000.000
G1 X93.845 Y88.055
G1 Z0.350
G1 E3.20000 F2400.00000
M204 S800
G1 F1119
G1 X90.238 Y94.303 E0.18798
G1 X86.155 Y91.945 E0.12284
G1 X89.762 Y85.697 E0.18798
G1 X93.793 Y88.025 E0.12127
M204 S1250
G1 X94.416 Y87.902 F9000.000
M204 S800
G1 F1119
G1 X90.391 Y94.873 E0.20975
G1 X85.584 Y92.098 E0.14461
G1 X89.609 Y85.127 E0.20975
G1 X94.364 Y87.872 E0.14305
M204 S1250
G1 X94.151 Y88.201 F9000.000
G1 E-2.24000 F4200.00000
G1 F7200.000
G1 X93.552 Y89.303 E-0.91200
G1 E-0.04800 F4200.00000
G1 Z0.550 F9000.000
G1 X89.623 Y93.803
G1 Z0.350
G1 E3.20000 F2400.00000
M204 S1000
G1 F1119
G1 X90.905 Y92.520 E0.04981
G1 X91.756 Y91.047 E0.04673
G1 X89.365 Y93.437 E0.09283
G1 X88.971 Y93.209 E0.01252
G1 X92.606 Y89.573 E0.14121
G1 X93.417 Y88.169 E0.04452
G1 X93.398 Y88.159 E0.00059
G1 X88.576 Y92.981 E0.18729
G1 X88.181 Y92.753 E0.01252
G1 X93.003 Y87.931 E0.18729
G1 X92.609 Y87.703 E0.01252
G1 X87.786 Y92.525 E0.18729
G1 X87.391 Y92.297 E0.01252
G1 X92.214 Y87.475 E0.18729
G1 X91.819 Y87.247 E0.01252
G1 X86.996 Y92.069 E0.18729
G1 X86.602 Y91.841 E0.01252
G1 X91.424 Y87.019 E0.18729
G1 X91.029 Y86.791 E0.01252
G1 X87.394 Y90.427 E0.14120
G1 X88.244 Y88.953 E0.04673
G1 X90.635 Y86.563 E0.09282
G1 X90.240 Y86.335 E0.01252
G1 X88.582 Y87.993 E0.06440
M204 S1250
; stop printing object 05.stl id:0 copy 0
;BEFORE_LAYER_CHANGE
G92 E0.0
;0.5


G1 Z0.500 F9000.000
;AFTER_LAYER_CHANGE
;0.5
G1 E-3.20000 F4200.00000
G1 Z0.700 F9000.000
G1 X87.451 Y82.475
G1 Z0.500
G1 E3.20000 F2400.00000
G1 F1119
G1 X88.072 Y82.047 E0.01825
G1 X88.778 Y81.779 E0.01825
G1 X89.531 Y81.688 E0.01835
G1 X90.259 Y81.775 E0.01772
G1 X90.950 Y82.030 E0.01783
G1 X96.539 Y85.268 E0.15621
G1 X97.053 Y85.727 E0.01667
G1 X97.454 Y86.288 E0.01667
G1 X97.723 Y86.923 E0.01667
G1 X97.847 Y87.601 E0.01667
G1 X97.790 Y88.449 E0.02055
G1 X97.510 Y89.246 E0.02045
G1 X93.076 Y96.921 E0.21435
G1 X92.613 Y97.466 E0.01730
G1 X92.043 Y97.890 E0.01720
G1 X91.391 Y98.174 E0.01720
G1 X90.692 Y98.304 E0.01720
G1 X89.869 Y98.253 E0.01992
G1 X89.089 Y97.989 E0.01992
G1 X83.497 Y94.757 E0.15621
G1 X82.968 Y94.295 E0.01699
G1 X82.557 Y93.731 E0.01688
G1 X82.279 Y93.086 E0.01699
G1 X82.153 Y92.399 E0.01688
G1 X82.210 Y91.551 E0.02055
G1 X82.490 Y90.754 E0.02045
G1 X86.948 Y83.043 E0.21541
G1 X87.411 Y82.520 E0.01690
G1 X87.690 Y82.767 F9000.000
G1 F1119
G1 X88.241 Y82.384 E0.01622
G1 X88.867 Y82.145 E0.01622
G1 X89.529 Y82.065 E0.01612
G1 X90.179 Y82.144 E0.01583
G1 X90.792 Y82.373 E0.01583
G1 X96.301 Y85.562 E0.15394
G1 X96.761 Y85.967 E0.01484
G1 X97.119 Y86.461 E0.01474
G1 X97.359 Y87.021 E0.01474
G1 X97.470 Y87.621 E0.01474
G1 X97.421 Y88.371 E0.01819
G1 X97.170 Y89.084 E0.01829
G1 X92.772 Y96.697 E0.21263
G1 X92.367 Y97.180 E0.01524
G1 X91.863 Y97.558 E0.01524
G1 X91.287 Y97.812 E0.01524
G1 X90.672 Y97.928 E0.01514
G1 X89.937 Y97.882 E0.01780
G1 X89.241 Y97.644 E0.01780
G1 X83.726 Y94.457 E0.15404
G1 X83.255 Y94.051 E0.01504
G1 X82.889 Y93.553 E0.01494
G1 X82.643 Y92.986 E0.01494
G1 X82.530 Y92.379 E0.01494
G1 X82.579 Y91.625 E0.01829
G1 X82.832 Y90.912 E0.01829
G1 X87.248 Y83.272 E0.21342
G1 X87.651 Y82.812 E0.01477
G1 X87.933 Y83.056 F9000.000
G1 F1119
G1 X88.409 Y82.722 E0.01408
G1 X88.955 Y82.512 E0.01415
G1 X89.533 Y82.442 E0.01406
G1 X90.098 Y82.512 E0.01378
G1 X90.628 Y82.713 E0.01369
G1 X96.069 Y85.860 E0.15204
G1 X96.471 Y86.209 E0.01287
G1 X96.786 Y86.638 E0.01287
G1 X96.997 Y87.127 E0.01287
G1 X97.094 Y87.646 E0.01278
G1 X97.051 Y88.302 E0.01589
G1 X96.828 Y88.924 E0.01598
G1 X92.466 Y96.476 E0.21094
G1 X92.120 Y96.895 E0.01314
G1 X91.684 Y97.226 E0.01324
G1 X91.188 Y97.448 E0.01314
G1 X90.650 Y97.551 E0.01324
G1 X90.010 Y97.512 E0.01552
G1 X89.399 Y97.301 E0.01561
G1 X83.953 Y94.155 E0.15213
G1 X83.541 Y93.805 E0.01305
G1 X83.222 Y93.375 E0.01296
G1 X83.005 Y92.881 E0.01305
G1 X82.906 Y92.354 E0.01296
G1 X82.949 Y91.698 E0.01589
G1 X83.172 Y91.076 E0.01598
G1 X87.551 Y83.498 E0.21167
G1 X87.893 Y83.102 E0.01268
; printing object 05.stl id:0 copy 0
G1 E-2.24000 F4200.00000
G1 F7200.000
G1 X88.409 Y82.722 E-0.35501
G1 X88.955 Y82.512 E-0.32424
G1 X89.372 Y82.462 E-0.23274
G1 E-0.04800 F4200.00000
G1 Z0.700 F9000.000
G1 X89.762 Y85.697
G1 Z0.500
G1 E3.20000 F2400.00000
M204 S800
G1 F1119
G1 X93.845 Y88.055 E0.12284
G1 X90.238 Y94.303 E0.18798
G1 X86.155 Y91.945 E0.12284
G1 X89.732 Y85.749 E0.18641
M204 S1250
G1 X89.609 Y85.127 F9000.000
M204 S800
G1 F1119
G1 X94.416 Y87.902 E0.14461
G1 X90.391 Y94.873 E0.20975
G1 X85.584 Y92.098 E0.14461
G1 X89.579 Y85.179 E0.20819
M204 S1250
G1 X89.874 Y85.426 F9000.000
G1 E-2.24000 F4200.00000
G1 F7200.000
G1 X91.013 Y85.986 E-0.91200
G1 E-0.04800 F4200.00000
G1 Z0.700 F9000.000
G1 X88.452 Y93.127
G1 Z0.500
G1 E3.20000 F2400.00000
M204 S1000
G1 F1119
G1 X86.793 Y91.467 E0.06451
G1 X87.021 Y91.072 E0.01254
G1 X89.413 Y93.465 E0.09299
G1 X90.123 Y93.874 E0.02252
G1 X90.241 Y93.669 E0.00651
G1 X87.249 Y90.677 E0.11631
G1 X87.477 Y90.282 E0.01254
G1 X90.470 Y93.274 E0.11631
G1 X90.698 Y92.879 E0.01254
G1 X87.705 Y89.887 E0.11631
G1 X87.933 Y89.492 E0.01254
G1 X90.926 Y92.484 E0.11631
G1 X91.154 Y92.089 E0.01254
G1 X88.162 Y89.097 E0.11631
G1 X88.390 Y88.701 E0.01254
G1 X91.382 Y91.694 E0.11631
G1 X91.610 Y91.299 E0.01254
G1 X88.618 Y88.306 E0.11631
G1 X88.846 Y87.911 E0.01254
G1 X91.838 Y90.904 E0.11631
G1 X92.066 Y90.508 E0.01254
G1 X89.074 Y87.516 E0.11631
G1 X89.302 Y87.121 E0.01254
G1 X92.295 Y90.113 E0.11631
G1 X92.523 Y89.718 E0.01254
G1 X89.530 Y86.726 E0.11631
G1 X89.759 Y86.331 E0.01254
G1 X92.751 Y89.323 E0.11631
G1 X92.979 Y88.928 E0.01254
G1 X90.586 Y86.535 E0.09300
G1 X92.061 Y87.386 E0.04680
G1 X93.345 Y88.670 E0.04990
M204 S1250
; stop printing object 05.stl id:0 copy 0
;BEFORE_LAYER_CHANGE
G92 E0.0
;0.65


G1 Z0.650 F9000.000
;AFTER_LAYER_CHANGE
;0.65
; printing object 05.stl id:0 copy 0
G1 X93.845 Y88.055
M204 S800
G1 F900
G1 X90.238 Y94.303 E0.18798
G1 X86.155 Y91.945 E0.12284
G1 X89.762 Y85.697 E0.18798
G1 X93.793 Y88.025 E0.12127
M204 S1250
G1 X94.416 Y87.902 F9000.000
M204 S800
G1 F900
G1 X90.391 Y94.873 E0.20975
G1 X85.584 Y92.098 E0.14461
G1 X89.609 Y85.127 E0.20975
G1 X94.364 Y87.872 E0.14305
M204 S1250
G1 X94.151 Y88.201 F9000.000
G1 E-2.24000 F4200.00000
G1 F7200.000
G1 X93.552 Y89.303 E-0.91200
G1 E-0.04800 F4200.00000
G1 Z0.850 F9000.000
G1 X89.623 Y93.803
G1 Z0.650
G1 E3.20000 F2400.00000
M204 S1000
G1 F900
G1 X90.905 Y92.520 E0.04981
G1 X91.756 Y91.047 E0.04673
G1 X89.365 Y93.437 E0.09283
G1 X88.971 Y93.209 E0.01252
G1 X92.606 Y89.573 E0.14121
G1 X93.417 Y88.169 E0.04452
G1 X93.398 Y88.159 E0.00059
G1 X88.576 Y92.981 E0.18729
G1 X88.181 Y92.753 E0.01252
G1 X93.003 Y87.931 E0.18729
G1 X92.609 Y87.703 E0.01252
G1 X87.786 Y92.525 E0.18729
G1 X87.391 Y92.297 E0.01252
G1 X92.214 Y87.475 E0.18729
G1 X91.819 Y87.247 E0.01252
G1 X86.996 Y92.069 E0.18729
G1 X86.602 Y91.841 E0.01252
G1 X91.424 Y87.019 E0.18729
M73 P14 R7
G1 X91.029 Y86.791 E0.01252
G1 X87.394 Y90.427 E0.14120
G1 X88.244 Y88.953 E0.04673
G1 X90.635 Y86.563 E0.09282
G1 X90.240 Y86.335 E0.01252
G1 X88.582 Y87.993 E0.06440
M204 S1250
; stop printing object 05.stl id:0 copy 0
;BEFORE_LAYER_CHANGE
G92 E0.0
;0.8


G1 Z0.800 F9000.000
;AFTER_LAYER_CHANGE
;0.8
; printing object 05.stl id:0 copy 0
G1 E-3.20000 F4200.00000
G1 Z1.000 F9000.000
G1 X89.762 Y85.697
G1 Z0.800
G1 E3.20000 F2400.00000
M204 S800
G1 F900
