; generated by PrusaSlicer 2.2.0+ on 2021-09-11 at 05:14:46 UTC


;
;

;
;
; 

; external perimeters extrusion width = 0.45mm
; perimeters extrusion width = 0.45mm
; infill extrusion width = 0.45mm
; solid infill extrusion width = 0.45mm
; top infill extrusion width = 0.40mm
; first layer extrusion width = 0.42mm

M73 P0 R45
M201 X1250 Y1250 Z400 E5000 ; sets maximum accelerations, mm/sec^2
M203 X180 Y180 Z12 E80 ; sets maximum feedrates, mm/sec
M204 P1250 R1250 T1250 ; sets acceleration (P, T) and retract acceleration (R), mm/sec^2
M205 X8.00 Y8.00 Z2.00 E10.00 ; sets the jerk limits, mm/sec
M205 S0 T0 ; sets the minimum extruding and travel feed rate, mm/sec
M107
G90 ; use absolute coordinates
M83 ; extruder relative mode
M104 S170 ; set extruder temp for bed leveling
M140 S60 ; set bed temp
M109 R170 ; wait for bed leveling temp
M190 S60 ; wait for bed temp
G28 ; home all without mesh bed level
G29 ; mesh bed leveling 
M104 S215 ; set extruder temp
G92 E0.0
G1 Y-2.0 X179 F2400
G1 Z3 F720
M109 S215 ; wait for extruder temp

; intro line
G1 X170 F1000
G1 Z0.2 F720
G1 X110.0 E8.0 F900
M73 P0 R45
G1 X40.0 E10.0 F700
G92 E0.0

M221 S95 ; set flow
G21 ; set units to millimeters
G90 ; use absolute coordinates
M83 ; use relative distances for extrusion
M900 K0.2 ; Filament gcode LA 1.5
; ; Filament gcode LA 1.0
;BEFORE_LAYER_CHANGE
G92 E0.0
;0.2


G1 Z0.200 F9000.000
;AFTER_LAYER_CHANGE
;0.2
G1 E-3.20000 F4200.00000
G1 Z0.400 F9000.000
G1 X68.048 Y76.322
G1 Z0.200
G1 E3.20000 F2400.00000
M204 S800
G1 F1200.000
G1 X68.987 Y76.123 E0.03013
G1 X111.004 Y76.123 E1.31739
G1 X111.888 Y76.295 E0.02825
G1 X112.642 Y76.781 E0.02813
G1 X113.162 Y77.513 E0.02813
G1 X113.374 Y78.388 E0.02825
G1 X113.370 Y94.686 E0.51101
G1 X113.235 Y95.310 E0.02000
G1 X112.937 Y95.878 E0.02012
G1 X112.497 Y96.346 E0.02012
G1 X111.952 Y96.678 E0.02000
G1 X92.681 Y103.777 E0.64395
G1 X92.051 Y103.877 E0.02000
G1 X87.935 Y103.876 E0.12903
G1 X87.190 Y103.735 E0.02378
G1 X68.118 Y96.707 E0.63730
G1 X67.346 Y96.207 E0.02884
G1 X66.822 Y95.451 E0.02884
G1 X66.623 Y94.527 E0.02966
G1 X66.628 Y78.348 E0.50728
G1 X66.757 Y77.712 E0.02036
G1 X67.055 Y77.134 E0.02036
G1 X67.497 Y76.659 E0.02036
G1 X67.996 Y76.353 E0.01836
M204 S1250
; printing object holderv2.stl id:0 copy 0
G1 E-2.24000 F4200.00000
G1 F7200.000
G1 X68.987 Y76.123 E-0.56392
G1 X69.616 Y76.123 E-0.34808
G1 E-0.04800 F4200.00000
G1 Z0.400 F9000.000
G1 X69.787 Y79.287
G1 Z0.200
G1 E3.20000 F2400.00000
M204 S800
G1 F1200.000
G1 X81.675 Y79.287 E0.37274
G1 X81.675 Y93.287 E0.43896
G1 X98.287 Y93.287 E0.52085
G1 X98.287 Y79.287 E0.43896
G1 X110.213 Y79.287 E0.37393
G1 X110.213 Y82.178 E0.09064
G1 X110.059 Y81.768 E0.01374
G1 X109.798 Y81.331 E0.01597
G1 X109.463 Y80.947 E0.01597
G1 X109.065 Y80.630 E0.01597
G1 X108.616 Y80.388 E0.01597
G1 X108.129 Y80.230 E0.01607
G1 X107.598 Y80.164 E0.01679
G1 X107.119 Y80.185 E0.01503
G1 X106.622 Y80.299 E0.01597
G1 X106.154 Y80.499 E0.01597
G1 X105.729 Y80.779 E0.01597
G1 X105.361 Y81.131 E0.01597
G1 X105.062 Y81.543 E0.01597
G1 X104.841 Y82.002 E0.01597
G1 X104.705 Y82.493 E0.01597
G1 X104.660 Y83.000 E0.01597
G1 X104.705 Y83.507 E0.01597
G1 X104.841 Y83.998 E0.01597
G1 X105.063 Y84.460 E0.01607
G1 X105.383 Y84.889 E0.01679
G1 X105.729 Y85.221 E0.01503
G1 X106.154 Y85.501 E0.01597
G1 X106.622 Y85.701 E0.01597
G1 X107.119 Y85.815 E0.01597
G1 X107.627 Y85.837 E0.01597
G1 X108.132 Y85.769 E0.01597
G1 X108.616 Y85.612 E0.01597
G1 X109.065 Y85.370 E0.01597
G1 X109.465 Y85.051 E0.01607
G1 X109.813 Y84.644 E0.01679
G1 X110.059 Y84.232 E0.01503
G1 X110.213 Y83.822 E0.01374
G1 X110.213 Y93.713 E0.31012
G1 X91.213 Y93.713 E0.59573
G1 X91.213 Y100.713 E0.21948
G1 X88.787 Y100.713 E0.07606
G1 X88.787 Y93.713 E0.21948
G1 X69.787 Y93.713 E0.59573
G1 X69.787 Y83.803 E0.31071
G1 X69.841 Y83.998 E0.00634
G1 X70.062 Y84.457 E0.01597
G1 X70.361 Y84.869 E0.01597
G1 X70.729 Y85.221 E0.01597
G1 X71.154 Y85.501 E0.01597
G1 X71.622 Y85.701 E0.01597
G1 X72.119 Y85.815 E0.01597
G1 X72.627 Y85.837 E0.01597
G1 X73.132 Y85.769 E0.01597
G1 X73.616 Y85.612 E0.01597
G1 X74.065 Y85.370 E0.01597
G1 X74.463 Y85.053 E0.01597
G1 X74.798 Y84.669 E0.01597
G1 X75.059 Y84.232 E0.01597
G1 X75.238 Y83.756 E0.01597
G1 X75.329 Y83.255 E0.01597
G1 X75.329 Y82.745 E0.01597
G1 X75.238 Y82.244 E0.01597
G1 X75.059 Y81.768 E0.01597
G1 X74.798 Y81.331 E0.01597
G1 X74.463 Y80.947 E0.01597
G1 X74.065 Y80.630 E0.01597
G1 X73.616 Y80.388 E0.01597
G1 X73.129 Y80.230 E0.01607
G1 X72.598 Y80.164 E0.01679
G1 X72.119 Y80.185 E0.01503
G1 X71.622 Y80.299 E0.01597
G1 X71.154 Y80.499 E0.01597
G1 X70.729 Y80.779 E0.01597
G1 X70.361 Y81.131 E0.01597
G1 X70.062 Y81.543 E0.01597
G1 X69.841 Y82.002 E0.01597
G1 X69.787 Y82.197 E0.00634
G1 X69.787 Y79.347 E0.08935
M204 S1250
G1 E-2.24000 F4200.00000
G1 F7200.000
G1 X71.433 Y79.339 E-0.91200
G1 E-0.04800 F4200.00000
G1 Z0.400 F9000.000
G1 X70.965 Y81.075
G1 Z0.200
G1 E3.20000 F2400.00000
M204 S800
G1 F1200.000
G1 X71.333 Y80.832 E0.01384
G1 X71.739 Y80.659 E0.01384
G1 X72.170 Y80.561 E0.01384
G1 X72.583 Y80.542 E0.01297
G1 X73.047 Y80.600 E0.01466
G1 X73.467 Y80.736 E0.01387
G1 X73.856 Y80.946 E0.01384
G1 X74.201 Y81.221 E0.01384
G1 X74.492 Y81.553 E0.01384
G1 X74.718 Y81.932 E0.01384
G1 X74.873 Y82.345 E0.01384
G1 X74.952 Y82.779 E0.01384
G1 X74.952 Y83.221 E0.01384
G1 X74.873 Y83.655 E0.01384
G1 X74.718 Y84.068 E0.01384
G1 X74.492 Y84.447 E0.01384
G1 X74.201 Y84.779 E0.01384
G1 X73.856 Y85.054 E0.01384
G1 X73.467 Y85.264 E0.01384
G1 X73.048 Y85.400 E0.01384
G1 X72.610 Y85.459 E0.01384
G1 X72.170 Y85.439 E0.01384
G1 X71.739 Y85.341 E0.01384
G1 X71.333 Y85.168 E0.01384
G1 X70.965 Y84.925 E0.01384
G1 X70.646 Y84.620 E0.01384
G1 X70.387 Y84.263 E0.01384
G1 X70.195 Y83.865 E0.01384
G1 X70.078 Y83.440 E0.01384
G1 X70.038 Y83.000 E0.01384
G1 X70.078 Y82.560 E0.01384
G1 X70.195 Y82.135 E0.01384
G1 X70.387 Y81.737 E0.01384
G1 X70.646 Y81.380 E0.01384
G1 X70.922 Y81.117 E0.01196
M204 S1250
G1 X70.906 Y80.680 F9000.000
G1 E-2.24000 F4200.00000
G1 F7200.000
G1 X71.333 Y80.832 E-0.27734
G1 X71.739 Y80.659 E-0.24457
G1 X72.170 Y80.561 E-0.24457
G1 X72.432 Y80.549 E-0.14552
G1 E-0.04800 F4200.00000
G1 Z0.400 F9000.000
G1 X105.038 Y83.000
G1 Z0.200
G1 E3.20000 F2400.00000
M204 S800
G1 F1200.000
G1 X105.078 Y82.560 E0.01384
G1 X105.195 Y82.135 E0.01384
G1 X105.387 Y81.737 E0.01384
G1 X105.646 Y81.380 E0.01384
G1 X105.965 Y81.075 E0.01384
G1 X106.333 Y80.832 E0.01384
G1 X106.739 Y80.659 E0.01384
G1 X107.170 Y80.561 E0.01384
G1 X107.583 Y80.542 E0.01297
G1 X108.047 Y80.600 E0.01466
G1 X108.467 Y80.736 E0.01387
G1 X108.856 Y80.946 E0.01384
G1 X109.201 Y81.221 E0.01384
G1 X109.492 Y81.553 E0.01384
G1 X109.718 Y81.932 E0.01384
G1 X109.873 Y82.345 E0.01384
G1 X109.952 Y82.779 E0.01384
G1 X109.952 Y83.221 E0.01384
G1 X109.873 Y83.655 E0.01384
G1 X109.718 Y84.068 E0.01384
G1 X109.506 Y84.423 E0.01297
G1 X109.202 Y84.779 E0.01466
G1 X108.856 Y85.054 E0.01387
G1 X108.467 Y85.264 E0.01384
G1 X108.048 Y85.400 E0.01384
G1 X107.610 Y85.459 E0.01384
G1 X107.170 Y85.439 E0.01384
G1 X106.739 Y85.341 E0.01384
G1 X106.333 Y85.168 E0.01384
G1 X105.965 Y84.925 E0.01384
G1 X105.666 Y84.639 E0.01297
G1 X105.387 Y84.264 E0.01466
G1 X105.195 Y83.865 E0.01387
G1 X105.078 Y83.440 E0.01384
G1 X105.044 Y83.060 E0.01196
M204 S1250
G1 X104.692 Y82.800 F9000.000
G1 E-2.24000 F4200.00000
G1 F7200.000
G1 X105.078 Y82.560 E-0.27735
G1 X105.195 Y82.135 E-0.24457
G1 X105.387 Y81.737 E-0.24457
G1 X105.541 Y81.525 E-0.14552
G1 E-0.04800 F4200.00000
G1 Z0.400 F9000.000
G1 X82.052 Y92.910
G1 Z0.200
G1 E3.20000 F2400.00000
M204 S800
G1 F1200.000
G1 X97.910 Y92.910 E0.49721
G1 X97.910 Y78.910 E0.43896
G1 X110.590 Y78.910 E0.39757
G1 X110.590 Y94.090 E0.47596
G1 X91.590 Y94.090 E0.59573
G1 X91.590 Y101.090 E0.21948
G1 X88.410 Y101.090 E0.09971
G1 X88.410 Y94.090 E0.21948
G1 X69.410 Y94.090 E0.59573
G1 X69.410 Y78.910 E0.47596
G1 X82.052 Y78.910 E0.39639
G1 X82.052 Y92.850 E0.43708
M204 S1250
G1 X82.149 Y93.298 F9000.000
G1 E-2.24000 F4200.00000
G1 F7200.000
G1 X83.698 Y92.856 E-0.91200
G1 E-0.04800 F4200.00000
G1 Z0.400 F9000.000
G1 X81.562 Y87.942
G1 Z0.200
G1 E3.20000 F2400.00000
M204 S800
G1 F1200.000
G1 X75.345 Y81.725 E0.27608
G1 X75.512 Y82.169 E0.01487
G1 X75.569 Y82.483 E0.01002
G1 X81.392 Y88.307 E0.25862
G1 X81.392 Y88.841 E0.01677
G1 X75.612 Y83.060 E0.25671
G1 X75.612 Y83.280 E0.00691
G1 X75.563 Y83.546 E0.00848
G1 X81.392 Y89.375 E0.25885
G1 X81.392 Y89.909 E0.01677
G1 X75.458 Y83.974 E0.26354
G1 X75.311 Y84.362 E0.01301
G1 X81.392 Y90.443 E0.27006
G1 X81.392 Y90.977 E0.01677
G1 X75.111 Y84.696 E0.27893
G1 X75.028 Y84.836 E0.00513
G1 X74.883 Y85.002 E0.00690
G1 X81.392 Y91.511 E0.28907
G1 X81.392 Y92.045 E0.01677
G1 X74.629 Y85.282 E0.30034
G1 X74.332 Y85.519 E0.01193
G1 X81.392 Y92.579 E0.31354
G1 X81.392 Y93.113 E0.01677
G1 X74.004 Y85.724 E0.32812
G1 X73.645 Y85.900 E0.01254
G1 X81.175 Y93.430 E0.33440
G1 X80.641 Y93.430 E0.01677
G1 X73.242 Y86.031 E0.32859
G1 X72.779 Y86.102 E0.01470
G1 X80.107 Y93.430 E0.32541
G1 X79.573 Y93.430 E0.01677
G1 X72.246 Y86.103 E0.32536
G1 X72.081 Y86.096 E0.00520
G1 X71.594 Y85.985 E0.01569
G1 X79.039 Y93.430 E0.33063
G1 X78.505 Y93.430 E0.01677
G1 X70.070 Y84.995 E0.37458
G1 X70.070 Y85.529 E0.01677
G1 X77.971 Y93.430 E0.35086
G1 X77.437 Y93.430 E0.01677
G1 X70.070 Y86.063 E0.32714
G1 X70.070 Y86.597 E0.01677
G1 X76.903 Y93.430 E0.30343
G1 X76.369 Y93.430 E0.01677
G1 X70.070 Y87.131 E0.27971
G1 X70.070 Y87.666 E0.01677
G1 X75.834 Y93.430 E0.25599
G1 X75.300 Y93.430 E0.01677
G1 X70.070 Y88.200 E0.23228
G1 X70.070 Y88.734 E0.01677
G1 X74.766 Y93.430 E0.20856
G1 X74.232 Y93.430 E0.01677
G1 X70.070 Y89.268 E0.18484
G1 X70.070 Y89.802 E0.01677
G1 X73.698 Y93.430 E0.16113
G1 X73.164 Y93.430 E0.01677
G1 X70.070 Y90.336 E0.13741
G1 X70.070 Y90.870 E0.01677
G1 X72.630 Y93.430 E0.11369
G1 X72.096 Y93.430 E0.01677
G1 X70.070 Y91.404 E0.08998
G1 X70.070 Y91.938 E0.01677
G1 X71.562 Y93.430 E0.06626
G1 X71.028 Y93.430 E0.01677
G1 X70.070 Y92.472 E0.04254
G1 X70.070 Y93.006 E0.01677
G1 X70.664 Y93.600 E0.02636
M204 S1250
G1 E-2.24000 F4200.00000
G1 F7200.000
G1 X70.070 Y93.006 E-0.46525
G1 X70.070 Y92.472 E-0.29596
G1 X70.262 Y92.664 E-0.15079
G1 E-0.04800 F4200.00000
G1 Z0.400 F9000.000
G1 X69.914 Y83.596
G1 Z0.200
G1 E3.20000 F2400.00000
M204 S800
G1 F1200.000
G1 X69.745 Y83.471 E0.00438
G1 X69.724 Y82.989 E0.01008
M204 S1250
M204 S800
G1 X69.745 Y82.529 E0.00996
G1 X69.914 Y82.404 E0.00454
M204 S1250
G1 X70.341 Y80.994 F9000.000
M204 S800
G1 F1200.000
G1 X70.070 Y80.723 E0.01204
G1 X70.070 Y80.189 E0.01677
G1 X70.494 Y80.613 E0.01884
G1 X70.805 Y80.390 E0.01202
G1 X70.070 Y79.655 E0.03267
G1 X70.070 Y79.570 E0.00266
G1 X70.519 Y79.570 E0.01411
G1 X71.145 Y80.195 E0.02777
G1 X71.519 Y80.035 E0.01278
G1 X71.053 Y79.570 E0.02067
G1 X71.587 Y79.570 E0.01677
G1 X71.951 Y79.934 E0.01615
G1 X72.081 Y79.904 E0.00417
G1 X72.440 Y79.888 E0.01128
G1 X72.121 Y79.570 E0.01413
G1 X72.656 Y79.570 E0.01677
G1 X73.017 Y79.931 E0.01604
G1 X73.191 Y79.953 E0.00550
G1 X73.769 Y80.149 E0.01919
G1 X73.190 Y79.570 E0.02574
G1 X73.724 Y79.570 E0.01677
G1 X81.392 Y87.239 E0.34055
G1 X81.392 Y86.705 E0.01677
G1 X74.258 Y79.570 E0.31684
G1 X74.792 Y79.570 E0.01677
G1 X81.392 Y86.171 E0.29312
G1 X81.392 Y85.636 E0.01677
G1 X75.326 Y79.570 E0.26940
G1 X75.860 Y79.570 E0.01677
G1 X81.392 Y85.102 E0.24569
G1 X81.392 Y84.568 E0.01677
G1 X76.394 Y79.570 E0.22197
G1 X76.928 Y79.570 E0.01677
G1 X81.392 Y84.034 E0.19825
G1 X81.392 Y83.500 E0.01677
G1 X77.462 Y79.570 E0.17454
G1 X77.996 Y79.570 E0.01677
G1 X81.392 Y82.966 E0.15082
G1 X81.392 Y82.432 E0.01677
G1 X78.530 Y79.570 E0.12710
G1 X79.064 Y79.570 E0.01677
G1 X81.392 Y81.898 E0.10339
G1 X81.392 Y81.364 E0.01677
G1 X79.598 Y79.570 E0.07967
G1 X80.132 Y79.570 E0.01677
G1 X81.392 Y80.830 E0.05595
G1 X81.392 Y80.296 E0.01677
G1 X80.667 Y79.570 E0.03224
G1 X81.201 Y79.570 E0.01677
G1 X81.562 Y79.931 E0.01605
M204 S1250
G1 E-2.24000 F4200.00000
G1 F7200.000
G1 X81.201 Y79.570 E-0.28334
G1 X80.667 Y79.570 E-0.29596
G1 X81.091 Y79.994 E-0.33270
G1 E-0.04800 F4200.00000
G1 Z0.400 F9000.000
G1 X88.900 Y100.087
G1 Z0.200
G1 E3.20000 F2400.00000
M204 S800
G1 F1200.000
G1 X89.243 Y100.430 E0.01524
G1 X89.777 Y100.430 E0.01677
G1 X89.070 Y99.723 E0.03142
G1 X89.070 Y99.189 E0.01677
G1 X90.311 Y100.430 E0.05513
G1 X90.845 Y100.430 E0.01677
G1 X89.070 Y98.655 E0.07885
G1 X89.070 Y98.120 E0.01677
G1 X90.930 Y99.981 E0.08261
G1 X90.930 Y99.447 E0.01677
G1 X89.070 Y97.586 E0.08261
G1 X89.070 Y97.052 E0.01677
G1 X90.930 Y98.913 E0.08261
G1 X90.930 Y98.379 E0.01677
G1 X89.070 Y96.518 E0.08261
G1 X89.070 Y95.984 E0.01677
G1 X90.930 Y97.844 E0.08261
G1 X90.930 Y97.310 E0.01677
G1 X89.070 Y95.450 E0.08261
G1 X89.070 Y94.916 E0.01677
G1 X90.930 Y96.776 E0.08261
G1 X90.930 Y96.242 E0.01677
G1 X89.070 Y94.382 E0.08261
G1 X89.070 Y93.848 E0.01677
G1 X90.930 Y95.708 E0.08261
G1 X90.930 Y95.174 E0.01677
G1 X89.326 Y93.570 E0.07124
G1 X89.860 Y93.570 E0.01677
G1 X90.930 Y94.640 E0.04752
G1 X90.930 Y94.106 E0.01677
G1 X90.394 Y93.570 E0.02381
G1 X90.928 Y93.570 E0.01677
G1 X91.100 Y93.742 E0.00763
M204 S1250
G1 E-2.24000 F4200.00000
G1 F7200.000
G1 X90.928 Y93.570 E-0.13460
G1 X90.394 Y93.570 E-0.29596
G1 X90.930 Y94.106 E-0.42016
G1 X90.930 Y94.217 E-0.06128
G1 E-0.04800 F4200.00000
G1 Z0.400 F9000.000
G1 X98.400 Y93.031
G1 Z0.200
G1 E3.20000 F2400.00000
M204 S800
G1 F1200.000
G1 X98.799 Y93.430 E0.01772
G1 X99.333 Y93.430 E0.01677
G1 X98.570 Y92.667 E0.03390
G1 X98.570 Y92.133 E0.01677
G1 X99.867 Y93.430 E0.05762
G1 X100.401 Y93.430 E0.01677
G1 X98.570 Y91.599 E0.08134
G1 X98.570 Y91.064 E0.01677
G1 X100.936 Y93.430 E0.10505
G1 X101.470 Y93.430 E0.01677
G1 X98.570 Y90.530 E0.12877
G1 X98.570 Y89.996 E0.01677
G1 X102.004 Y93.430 E0.15249
G1 X102.538 Y93.430 E0.01677
G1 X98.570 Y89.462 E0.17620
G1 X98.570 Y88.928 E0.01677
G1 X103.072 Y93.430 E0.19992
G1 X103.606 Y93.430 E0.01677
G1 X98.570 Y88.394 E0.22364
M73 P2 R44
G1 X98.570 Y87.860 E0.01677
G1 X104.140 Y93.430 E0.24735
G1 X104.674 Y93.430 E0.01677
G1 X98.570 Y87.326 E0.27107
G1 X98.570 Y86.792 E0.01677
G1 X105.208 Y93.430 E0.29479
G1 X105.742 Y93.430 E0.01677
G1 X98.570 Y86.258 E0.31850
G1 X98.570 Y85.724 E0.01677
G1 X106.276 Y93.430 E0.34222
G1 X106.810 Y93.430 E0.01677
G1 X98.570 Y85.190 E0.36594
G1 X98.570 Y84.656 E0.01677
G1 X107.344 Y93.430 E0.38965
G1 X107.878 Y93.430 E0.01677
G1 X98.570 Y84.122 E0.41337
G1 X98.570 Y83.588 E0.01677
G1 X108.412 Y93.430 E0.43709
G1 X108.947 Y93.430 E0.01677
G1 X98.570 Y83.053 E0.46080
G1 X98.570 Y82.519 E0.01677
G1 X109.481 Y93.430 E0.48452
G1 X109.930 Y93.430 E0.01412
G1 X109.930 Y93.346 E0.00265
G1 X98.570 Y81.985 E0.50448
G1 X98.570 Y81.451 E0.01677
G1 X109.930 Y92.812 E0.50448
G1 X109.930 Y92.277 E0.01677
G1 X98.570 Y80.917 E0.50448
G1 X98.570 Y80.383 E0.01677
G1 X109.930 Y91.743 E0.50448
G1 X109.930 Y91.209 E0.01677
G1 X98.570 Y79.849 E0.50448
G1 X98.570 Y79.570 E0.00877
G1 X98.825 Y79.570 E0.00800
G1 X109.930 Y90.675 E0.49316
G1 X109.930 Y90.141 E0.01677
G1 X99.359 Y79.570 E0.46945
G1 X99.893 Y79.570 E0.01677
G1 X109.930 Y89.607 E0.44573
G1 X109.930 Y89.073 E0.01677
G1 X106.915 Y86.058 E0.13388
G1 X107.081 Y86.096 E0.00533
G1 X107.506 Y86.115 E0.01338
G1 X109.930 Y88.539 E0.10764
G1 X109.930 Y88.005 E0.01677
G1 X107.998 Y86.073 E0.08581
G1 X108.195 Y86.046 E0.00626
G1 X108.429 Y85.970 E0.00772
G1 X109.930 Y87.471 E0.06666
G1 X109.930 Y86.937 E0.01677
G1 X108.818 Y85.824 E0.04940
G1 X109.165 Y85.638 E0.01238
G1 X109.930 Y86.403 E0.03398
G1 X109.930 Y85.869 E0.01677
G1 X109.470 Y85.409 E0.02042
G1 X109.663 Y85.255 E0.00774
G1 X109.749 Y85.154 E0.00418
G1 X110.100 Y85.504 E0.01556
M204 S1250
G1 E-2.24000 F4200.00000
G1 F7200.000
G1 X109.749 Y85.154 E-0.27466
G1 X109.663 Y85.255 E-0.07383
G1 X109.470 Y85.409 E-0.13653
G1 X109.930 Y85.869 E-0.36045
G1 X109.930 Y85.989 E-0.06653
G1 E-0.04800 F4200.00000
G1 Z0.400 F9000.000
G1 X110.236 Y83.635
G1 Z0.200
G1 E3.20000 F2400.00000
M204 S800
G1 F1200.000
G1 X110.270 Y83.261 E0.00946
M204 S1250
M204 S800
G1 X110.271 Y82.762 E0.01092
